X:1
M:4/4
K:G
(3DEF|G2F2 E2D2|ABcA dBG2|e2d2 c2B2|ABAG FAd2|
BAAB BAG2|efaf dcAB|d2e2 ecAA|F2E2 G2:|